categories/64/application-community.svg

<?xml version="1.0" encoding="UTF-8" standalone="no"?>
<!-- Created with Inkscape (http://www.inkscape.org/) -->

<svg
   xmlns:dc="http://purl.org/dc/elements/1.1/"
   xmlns:cc="http://creativecommons.org/ns#"
   xmlns:rdf="http://www.w3.org/1999/02/22-rdf-syntax-ns#"
   xmlns:svg="http://www.w3.org/2000/svg"
   xmlns="http://www.w3.org/2000/svg"
   xmlns:xlink="http://www.w3.org/1999/xlink"
   xmlns:inkscape="http://www.inkscape.org/namespaces/inkscape"
   version="1.0"
   width="64.000084"
   height="64.000084"
   id="svg1">
  <metadata
     id="metadata32">
    <rdf:RDF>
      <cc:Work
         rdf:about="">
        <dc:format>image/svg+xml</dc:format>
        <dc:type
           rdf:resource="http://purl.org/dc/dcmitype/StillImage" />
      </cc:Work>
    </rdf:RDF>
  </metadata>
  <defs
     id="defs3">
    <linearGradient
       id="linearGradient2790">
      <stop
         id="stop2792"
         style="stop-color:#000000;stop-opacity:1"
         offset="0" />
      <stop
         id="stop2794"
         style="stop-color:#000000;stop-opacity:0"
         offset="1" />
    </linearGradient>
    <linearGradient
       id="linearGradient2780">
      <stop
         id="stop2782"
         style="stop-color:#ffffff;stop-opacity:1"
         offset="0" />
      <stop
         id="stop2784"
         style="stop-color:#ffffff;stop-opacity:0"
         offset="1" />
    </linearGradient>
    <linearGradient
       id="linearGradient6621">
      <stop
         id="stop6622"
         style="stop-color:#f5a108;stop-opacity:0"
         offset="0" />
      <stop
         id="stop6623"
         style="stop-color:#fefdc3;stop-opacity:0.74251497"
         offset="1" />
    </linearGradient>
    <linearGradient
       x1="22.819513"
       y1="28.829224"
       x2="12.849945"
       y2="12.239423"
       id="linearGradient7881"
       xlink:href="#linearGradient6621"
       gradientUnits="userSpaceOnUse"
       gradientTransform="matrix(1.4125286,0,0,0.7265943,1.6664317,6.2125354)" />
    <linearGradient
       x1="24"
       y1="5.0793009"
       x2="24"
       y2="41.0793"
       id="linearGradient2786"
       xlink:href="#linearGradient2780"
       gradientUnits="userSpaceOnUse"
       gradientTransform="matrix(1.3373432,0,0,1.3416742,-0.2629916,2.323733)" />
    <radialGradient
       cx="24.375"
       cy="37.75"
       r="17.375"
       fx="24.375"
       fy="37.75"
       id="radialGradient2796"
       xlink:href="#linearGradient2790"
       gradientUnits="userSpaceOnUse"
       gradientTransform="matrix(1.3333352,0,0,0.5899288,-3.7916374e-8,28.813597)" />
    <linearGradient
       id="linearGradient3242">
      <stop
         id="stop3244"
         style="stop-color:#f8b17e;stop-opacity:1"
         offset="0" />
      <stop
         id="stop3246"
         style="stop-color:#e35d4f;stop-opacity:1"
         offset="0.31209752" />
      <stop
         id="stop3248"
         style="stop-color:#c6262e;stop-opacity:1"
         offset="0.57054454" />
      <stop
         id="stop3250"
         style="stop-color:#690b54;stop-opacity:1"
         offset="1" />
    </linearGradient>
    <linearGradient
       id="linearGradient2490">
      <stop
         id="stop2492"
         style="stop-color:#791235;stop-opacity:1"
         offset="0" />
      <stop
         id="stop2494"
         style="stop-color:#dd3b27;stop-opacity:1"
         offset="1" />
    </linearGradient>
    <linearGradient
       x1="24"
       y1="6"
       x2="24"
       y2="51"
       id="linearGradient3853"
       xlink:href="#linearGradient3242"
       gradientUnits="userSpaceOnUse"
       gradientTransform="matrix(1.3140645,0,0,1.3309371,0.3073108,0.2733841)" />
    <linearGradient
       x1="17"
       y1="45"
       x2="17"
       y2="6"
       id="linearGradient3861"
       xlink:href="#linearGradient2490"
       gradientUnits="userSpaceOnUse"
       gradientTransform="matrix(1.3140645,0,0,1.3309371,0.3073108,0.2733841)" />
  </defs>
  <path
     d="m 55.666743,51.083404 c 0,5.660926 -10.372084,10.250013 -23.166698,10.250013 -12.794614,0 -23.1666988,-4.589087 -23.1666988,-10.250013 0,-5.660926 10.3720848,-10.250014 23.1666988,-10.250014 12.794614,0 23.166698,4.589088 23.166698,10.250014 z"
     inkscape:connector-curvature="0"
     id="path2788"
     style="opacity:0.3;fill:url(#radialGradient2796);fill-opacity:1;fill-rule:nonzero;stroke:none;stroke-width:1;marker:none;visibility:visible;display:inline;overflow:visible" />
  <path
     d="M 18.716614,11.333628 C 11.559417,10.981485 8.2250827,15.577348 6.4214664,19.949343 4.6316036,25.706691 7.161716,36.580967 19.560463,35.753697 c 7.072185,0 9.883125,-7.249593 13.605178,-9.131546 3.38265,-1.27847 3.648878,-1.392892 7.2227,-1.392892 4.966501,0 13.947825,-3.592788 13.947828,-7.157672 -1.526586,-2.860602 -5.579467,-7.954892 -13.026895,-7.08663 -4.74059,0.551511 -9.225469,3.93871 -10.396985,5.624191 -2.869819,-2.530158 -6.534143,-5.27552 -12.195675,-5.27552 z"
     inkscape:connector-curvature="0"
     id="path7876"
     style="fill:url(#linearGradient7881);fill-opacity:1;fill-rule:evenodd;stroke:none" />
  <path
     d="M 31.63009,13.847095 C 43.836006,1.4896083 60.609794,12.879556 60.49946,24.599072 60.398593,35.312749 52.333394,40.443661 32.071433,59.500087 10.863264,41.772159 3.3908657,37.684032 3.5012017,24.972613 3.6115375,11.814366 17.971314,1.9390416 31.63009,13.847095 z"
     inkscape:connector-curvature="0"
     id="path920"
     style="fill:url(#linearGradient3853);fill-opacity:1;fill-rule:evenodd;stroke:url(#linearGradient3861);stroke-width:0.99999994;stroke-linecap:butt;stroke-linejoin:miter;stroke-miterlimit:4;stroke-opacity:1;stroke-dasharray:none" />
  <path
     d="M 19.964325,9.577159 C 18.850933,9.4815379 17.740991,9.5057015 16.704551,9.6610138 9.7888687,10.69734 4.5656348,17.028726 4.5012937,24.629067 4.4477813,30.73562 6.0478013,34.429132 10.477546,39.13592 14.746712,43.672083 21.822151,50.106435 32,58.500084 41.739734,49.465931 48.788448,42.416 53.147155,37.668462 57.670346,32.741767 59.451815,29.272279 59.499534,24.25172 59.548723,19.07622 55.67616,13.642405 50.347092,11.086543 45.018023,8.53068 38.474599,8.6607673 32.669086,14.482655 32.120413,15.021692 31.25454,15.057886 30.663071,14.56651 26.95016,11.36019 23.304503,9.8640217 19.964325,9.577159 l 0,0 z"
     inkscape:connector-curvature="0"
     id="path2778"
     style="opacity:0.4;fill:none;stroke:url(#linearGradient2786);stroke-width:0.99999994;stroke-linecap:butt;stroke-linejoin:miter;stroke-miterlimit:4;stroke-opacity:1;stroke-dasharray:none" />
</svg>

<?xml version="1.0" encoding="UTF-8" standalone="no"?>
<!-- Created with Inkscape (http://www.inkscape.org/) -->
<svg
   xmlns:svg="http://www.w3.org/2000/svg"
   xmlns="http://www.w3.org/2000/svg"
   xmlns:xlink="http://www.w3.org/1999/xlink"
   version="1.0"
   width="64.000084"
   height="64.000084"
   id="svg1">
  <defs
     id="defs3">
    <linearGradient
       id="linearGradient2790">
      <stop
         id="stop2792"
         style="stop-color:#000000;stop-opacity:1"
         offset="0" />
      <stop
         id="stop2794"
         style="stop-color:#000000;stop-opacity:0"
         offset="1" />
    </linearGradient>
    <linearGradient
       id="linearGradient2780">
      <stop
         id="stop2782"
         style="stop-color:#ffffff;stop-opacity:1"
         offset="0" />
      <stop
         id="stop2784"
         style="stop-color:#ffffff;stop-opacity:0"
         offset="1" />
    </linearGradient>
    <linearGradient
       id="linearGradient6621">
      <stop
         id="stop6622"
         style="stop-color:#f5a108;stop-opacity:0"
         offset="0" />
      <stop
         id="stop6623"
         style="stop-color:#fefdc3;stop-opacity:0.74251497"
         offset="1" />
    </linearGradient>
    <linearGradient
       x1="22.819513"
       y1="28.829224"
       x2="12.849945"
       y2="12.239423"
       id="linearGradient7881"
       xlink:href="#linearGradient6621"
       gradientUnits="userSpaceOnUse"
       gradientTransform="matrix(1.4125286,0,0,0.7265943,1.6664317,6.2125354)" />
    <linearGradient
       x1="24"
       y1="5.0793009"
       x2="24"
       y2="41.0793"
       id="linearGradient2786"
       xlink:href="#linearGradient2780"
       gradientUnits="userSpaceOnUse"
       gradientTransform="matrix(1.3373432,0,0,1.3416742,-0.2629916,2.323733)" />
    <radialGradient
       cx="24.375"
       cy="37.75"
       r="17.375"
       fx="24.375"
       fy="37.75"
       id="radialGradient2796"
       xlink:href="#linearGradient2790"
       gradientUnits="userSpaceOnUse"
       gradientTransform="matrix(1.3333352,0,0,0.5899288,-3.7916374e-8,28.813597)" />
    <linearGradient
       id="linearGradient3242">
      <stop
         id="stop3244"
         style="stop-color:#f8b17e;stop-opacity:1"
         offset="0" />
      <stop
         id="stop3246"
         style="stop-color:#e35d4f;stop-opacity:1"
         offset="0.31209752" />
      <stop
         id="stop3248"
         style="stop-color:#c6262e;stop-opacity:1"
         offset="0.57054454" />
      <stop
         id="stop3250"
         style="stop-color:#690b54;stop-opacity:1"
         offset="1" />
    </linearGradient>
    <linearGradient
       id="linearGradient2490">
      <stop
         id="stop2492"
         style="stop-color:#791235;stop-opacity:1"
         offset="0" />
      <stop
         id="stop2494"
         style="stop-color:#dd3b27;stop-opacity:1"
         offset="1" />
    </linearGradient>
    <linearGradient
       x1="24"
       y1="6"
       x2="24"
       y2="51"
       id="linearGradient3853"
       xlink:href="#linearGradient3242"
       gradientUnits="userSpaceOnUse"
       gradientTransform="matrix(1.3140645,0,0,1.3309371,0.3073108,0.2733841)" />
    <linearGradient
       x1="17"
       y1="45"
       x2="17"
       y2="6"
       id="linearGradient3861"
       xlink:href="#linearGradient2490"
       gradientUnits="userSpaceOnUse"
       gradientTransform="matrix(1.3140645,0,0,1.3309371,0.3073108,0.2733841)" />
  </defs>
  <path
     d="M 55.666743,51.083404 C 55.666743,56.74433 45.294659,61.333417 32.500045,61.333417 C 19.705431,61.333417 9.3333462,56.74433 9.3333462,51.083404 C 9.3333462,45.422478 19.705431,40.83339 32.500045,40.83339 C 45.294659,40.83339 55.666743,45.422478 55.666743,51.083404 z"
     id="path2788"
     style="opacity:0.3;fill:url(#radialGradient2796);fill-opacity:1;fill-rule:nonzero;stroke:none;stroke-width:1;marker:none;visibility:visible;display:inline;overflow:visible" />
  <path
     d="M 18.716614,11.333628 C 11.559417,10.981485 8.2250827,15.577348 6.4214664,19.949343 C 4.6316036,25.706691 7.161716,36.580967 19.560463,35.753697 C 26.632648,35.753697 29.443588,28.504104 33.165641,26.622151 C 36.548291,25.343681 36.814519,25.229259 40.388341,25.229259 C 45.354842,25.229259 54.336166,21.636471 54.336169,18.071587 C 52.809583,15.210985 48.756702,10.116695 41.309274,10.984957 C 36.568684,11.536468 32.083805,14.923667 30.912289,16.609148 C 28.04247,14.07899 24.378146,11.333628 18.716614,11.333628 z"
     id="path7876"
     style="fill:url(#linearGradient7881);fill-opacity:1;fill-rule:evenodd;stroke:none" />
  <path
     d="M 31.63009,13.847095 C 43.836006,1.4896083 60.609794,12.879556 60.49946,24.599072 C 60.398593,35.312749 52.333394,40.443661 32.071433,59.500087 C 10.863264,41.772159 3.3908657,37.684032 3.5012017,24.972613 C 3.6115375,11.814366 17.971314,1.9390416 31.63009,13.847095 z"
     id="path920"
     style="fill:url(#linearGradient3853);fill-opacity:1;fill-rule:evenodd;stroke:url(#linearGradient3861);stroke-width:0.99999994;stroke-linecap:butt;stroke-linejoin:miter;stroke-miterlimit:4;stroke-dasharray:none;stroke-opacity:1" />
  <path
     d="M 19.964325,9.577159 C 18.850933,9.4815379 17.740991,9.5057015 16.704551,9.6610138 C 9.7888687,10.69734 4.5656348,17.028726 4.5012937,24.629067 C 4.4477813,30.73562 6.0478013,34.429132 10.477546,39.13592 C 14.746712,43.672083 21.822151,50.106435 32,58.500084 C 41.739734,49.465931 48.788448,42.416 53.147155,37.668462 C 57.670346,32.741767 59.451815,29.272279 59.499534,24.25172 C 59.548723,19.07622 55.67616,13.642405 50.347092,11.086543 C 45.018023,8.53068 38.474599,8.6607673 32.669086,14.482655 C 32.120413,15.021692 31.25454,15.057886 30.663071,14.56651 C 26.95016,11.36019 23.304503,9.8640217 19.964325,9.577159 L 19.964325,9.577159 z"
     id="path2778"
     style="opacity:0.4;fill:none;stroke:url(#linearGradient2786);stroke-width:0.99999994;stroke-linecap:butt;stroke-linejoin:miter;stroke-miterlimit:4;stroke-dasharray:none;stroke-opacity:1" />
</svg>
